categories/16/applications-debugging.svg

<?xml version="1.0" encoding="UTF-8" standalone="no"?>
<svg
   xmlns:dc="http://purl.org/dc/elements/1.1/"
   xmlns:cc="http://creativecommons.org/ns#"
   xmlns:rdf="http://www.w3.org/1999/02/22-rdf-syntax-ns#"
   xmlns:svg="http://www.w3.org/2000/svg"
   xmlns="http://www.w3.org/2000/svg"
   xmlns:sodipodi="http://sodipodi.sourceforge.net/DTD/sodipodi-0.dtd"
   xmlns:inkscape="http://www.inkscape.org/namespaces/inkscape"
   height="16"
   width="16"
   version="1.1"
   id="svg6"
   sodipodi:docname="apport.svg"
   inkscape:version="0.92.2 (unknown)">
  <metadata
     id="metadata12">
    <rdf:RDF>
      <cc:Work
         rdf:about="">
        <dc:format>image/svg+xml</dc:format>
        <dc:type
           rdf:resource="http://purl.org/dc/dcmitype/StillImage" />
      </cc:Work>
    </rdf:RDF>
  </metadata>
  <defs
     id="defs10" />
  <sodipodi:namedview
     pagecolor="#808080"
     bordercolor="#808080666"
     borderopacity="1"
     objecttolerance="10"
     gridtolerance="10"
     guidetolerance="10"
     inkscape:pageopacity="0"
     inkscape:pageshadow="2"
     inkscape:window-width="1238"
     inkscape:window-height="824"
     id="namedview8"
     showgrid="false"
     inkscape:zoom="14.75"
     inkscape:cx="-4.2372881"
     inkscape:cy="8"
     inkscape:window-x="0"
     inkscape:window-y="34"
     inkscape:window-maximized="0"
     inkscape:current-layer="svg6" />
  <g
     color="#000"
     transform="translate(-832 -464)"
     id="g4"
     style="fill:#808080;fill-opacity:1">
    <path
       d="M835.997 465a.5.5 0 0 0-.5.5.5.5 0 0 0 .5.5v.01a1.886 2.167 0 0 1 1.483 1.11 4 5 0 0 0-1.266 2.268 6.03 5 0 0 0 .014.01 5.364 5.364 0 0 0-2.745 2.708c-1.2 2.639-.136 5.705 2.377 6.85a.499.499 0 0 0 .662-.249l.893-1.96a4 5.25 0 0 0 2.582 1.253 4 5.25 0 0 0 2.588-1.254l.893 1.961c.114.252.41.363.662.248 2.513-1.144 3.578-4.21 2.377-6.85a5.365 5.365 0 0 0-2.746-2.708 6.03 5 0 0 0 .008-.004 4 5 0 0 0-1.268-2.268 1.886 2.167 0 0 1 1.486-1.115V466a.5.5 0 0 0 .5-.5.5.5 0 0 0-.5-.5.5.5 0 0 0-.17.029 2.886 3.167 0 0 0-2.107 1.463 4 5 0 0 0-1.723-.492 4 5 0 0 0-1.72.496 2.886 3.167 0 0 0-2.11-1.467.5.5 0 0 0-.17-.03zm1.553 5.06a6.03 5 0 0 0 1.633.387l-2.436 5.351-.906 1.99c-1.684-1.056-2.344-3.298-1.447-5.269a4.295 4.295 0 0 1 2.146-2.152c.084-.039.17-.067.256-.1a4.15 4.15 0 0 1 .683-.193l.07-.014zm4.902 0l.047.008c.273.05.54.13.799.235.047.019.096.033.142.054a4.296 4.296 0 0 1 2.166 2.162c.897 1.971.237 4.213-1.447 5.27l-.908-1.996-2.434-5.346a6.03 5 0 0 0 1.635-.387z"
       fill="#808080"
       overflow="visible"
       style="isolation:auto;mix-blend-mode:normal;marker:none;fill:#808080;fill-opacity:1"
       id="path2" />
  </g>
</svg>

<svg xmlns="http://www.w3.org/2000/svg" width="16" height="16" version="1.1">
 <g style="fill:#808080" transform="translate(-832,-464)">
  <path style="fill:#808080" d="M 836,465 A 0.5,0.5 0 0 0 835.5,465.5 0.5,0.5 0 0 0 836,466 V 466.01 A 1.886,2.167 0 0 1 837.48,467.12 4,5 0 0 0 836.21,469.39 6.03,5 0 0 0 836.23,469.4 5.364,5.364 0 0 0 833.48,472.11 C 832.28,474.75 833.35,477.81 835.86,478.96 A 0.499,0.499 0 0 0 836.52,478.71 L 837.41,476.75 A 4,5.25 0 0 0 840,478 4,5.25 0 0 0 842.58,476.75 L 843.48,478.71 C 843.59,478.96 843.89,479.07 844.14,478.95 846.65,477.81 847.72,474.75 846.52,472.1 A 5.365,5.365 0 0 0 843.77,469.4 6.03,5 0 0 0 843.78,469.39 4,5 0 0 0 842.51,467.12 1.886,2.167 0 0 1 844,466.01 V 466 A 0.5,0.5 0 0 0 844.5,465.5 0.5,0.5 0 0 0 844,465 0.5,0.5 0 0 0 843.83,465.03 2.886,3.167 0 0 0 841.72,466.49 4,5 0 0 0 840,466 4,5 0 0 0 838.28,466.5 2.886,3.167 0 0 0 836.17,465.03 0.5,0.5 0 0 0 836,465 Z M 837.55,470.06 A 6.03,5 0 0 0 839.18,470.45 L 836.75,475.8 835.84,477.79 C 834.16,476.73 833.5,474.49 834.39,472.52 A 4.295,4.295 0 0 1 836.54,470.37 C 836.62,470.33 836.71,470.3 836.8,470.27 A 4.15,4.15 0 0 1 837.48,470.07 Z M 842.45,470.06 842.5,470.07 C 842.77,470.12 843.04,470.2 843.3,470.3 843.35,470.32 843.39,470.34 843.44,470.36 A 4.296,4.296 0 0 1 845.61,472.52 C 846.5,474.49 845.84,476.73 844.16,477.79 L 843.25,475.79 840.82,470.45 A 6.03,5 0 0 0 842.45,470.06 Z"/>
 </g>
</svg>
